components/Icon/icons/npm.svg

<svg width="50" height="50" viewBox="0 0 50 50" fill="none" xmlns="http://www.w3.org/2000/svg">
<path d="M3.125 16.4922H46.875V31.0781H25V33.5094H15.2781V31.0766H3.125V16.4922ZM5.55625 28.6469H10.4172V21.3531H12.8469V28.6453H15.2781V18.9234H5.55625V28.6469ZM17.7094 18.9234V31.0781H22.5703V28.6469H27.4312V18.9234H17.7094ZM22.5703 21.3547H25V26.2172H22.5688L22.5703 21.3547ZM29.8625 18.9234V28.6469H34.7234V21.3531H37.1547V28.6453H39.5859V21.3531H42.0172V28.6453H44.4484V18.9234H29.8625Z" fill="#CB3837"/>
</svg>

<svg xmlns="http://www.w3.org/2000/svg" 
viewBox="0 0 50 50" width="100%" height="100%" fill="none"  xmlns:v="https://vecta.io/nano"><path d="M3.125 16.492h43.75v14.586H25v2.431h-9.722v-2.433H3.125V16.492zm2.431 12.155h4.861v-7.294h2.43v7.292h2.431v-9.722H5.556v9.723zm12.153-9.723v12.155h4.861v-2.431h4.861v-9.723h-9.722zm4.861 2.431H25v4.862h-2.431l.002-4.862zm7.292-2.431v9.723h4.861v-7.294h2.431v7.292h2.431v-7.292h2.431v7.292h2.431v-9.722H29.863z" fill="#cb3837"/></svg>
